public/ReactJS.svg

<svg width="50" height="50" viewBox="0 0 50 50" fill="none" xmlns="http://www.w3.org/2000/svg">
<g clip-path="url(#clip0_150_142)">
<path d="M50 25.0051C50 21.6926 45.8521 18.553 39.4917 16.6072C40.9604 10.1259 40.3084 4.96758 37.4333 3.31549C36.7367 2.92533 35.9483 2.72894 35.15 2.74674V5.01758C35.6188 5.01758 35.9959 5.11133 36.3125 5.28424C37.6979 6.08008 38.3 9.10508 37.8313 12.9989C37.7188 13.9572 37.5355 14.9655 37.3104 15.9946C35.1805 15.4814 33.0188 15.1105 30.8396 14.8842C29.5414 13.0932 28.125 11.3908 26.6 9.78841C29.923 6.70091 33.0417 5.00924 35.1625 5.00924V2.73633C32.3584 2.73633 28.6896 4.73424 24.9792 8.19883C21.2708 4.75716 17.6 2.77799 14.7979 2.77799V5.04883C16.9083 5.04883 20.0375 6.73216 23.3604 9.79883C21.9333 11.2988 20.5063 12.9989 19.15 14.8842C16.9663 15.108 14.8007 15.4824 12.6688 16.0051C12.4435 15.0297 12.2662 14.0438 12.1375 13.0509C11.6583 9.15508 12.25 6.13008 13.6271 5.32591C13.9313 5.14258 14.3292 5.05925 14.7979 5.05925V2.78841C13.9437 2.78841 13.1667 2.97174 12.4959 3.35716C9.63129 5.00924 8.98958 10.1551 10.4667 16.6176C4.12708 18.576 0 21.703 0 25.0051C0 28.3176 4.14792 31.4572 10.5083 33.401C9.03959 39.8842 9.69169 45.0426 12.5667 46.6926C13.2291 47.0801 14.0041 47.2634 14.8583 47.2634C17.6625 47.2634 21.3312 45.2655 25.0417 41.8009C28.75 45.2446 32.4188 47.2218 35.2229 47.2218C36.0273 47.2387 36.8218 47.0418 37.525 46.651C40.3896 45.0009 41.0313 39.8551 39.5542 33.3926C45.8729 31.4467 50 28.3072 50 25.0051V25.0051ZM36.7291 18.2072C36.3333 19.5694 35.8745 20.9125 35.3541 22.2321C34.5024 20.5754 33.5672 18.9629 32.5521 17.4009C34 17.6155 35.3959 17.8801 36.7313 18.2072H36.7291ZM32.0625 29.0613C31.2994 30.3935 30.4799 31.6927 29.6063 32.9551C26.5485 33.2246 23.473 33.2281 20.4146 32.9655C18.6603 30.4596 17.1261 27.8067 15.8292 25.0363C17.1242 22.2595 18.6518 19.5972 20.3959 17.078C23.4529 16.8079 26.5276 16.8038 29.5854 17.0655C30.4312 18.278 31.2583 19.5738 32.0521 20.9405C32.8271 22.2739 33.5313 23.628 34.1729 24.9947C33.5242 26.3779 32.8201 27.7346 32.0625 29.0613ZM35.3541 27.7364C35.9042 29.1009 36.375 30.4676 36.7605 31.7926C35.4271 32.1197 34.0188 32.3946 32.5625 32.6072C33.5734 31.0309 34.5052 29.4053 35.3541 27.7364ZM25.0208 38.6114C24.0729 37.6321 23.125 36.5426 22.1875 35.3489C23.1041 35.3905 24.0417 35.4217 24.9896 35.4217C25.9479 35.4217 26.8959 35.4009 27.8229 35.3489C26.9062 36.5426 25.9583 37.6321 25.0208 38.6114ZM17.4375 32.6072C16.0328 32.4036 14.6383 32.1353 13.2583 31.803C13.6354 30.4884 14.1042 29.1321 14.6333 27.778C15.0521 28.5905 15.4916 29.4072 15.9708 30.2239C16.45 31.0384 16.9375 31.8343 17.4375 32.6072V32.6072ZM24.9688 11.3989C25.9167 12.378 26.8646 13.4676 27.8021 14.6614C26.8854 14.6196 25.9479 14.5884 25 14.5884C24.0417 14.5884 23.0938 14.6093 22.1667 14.6614C23.0834 13.4676 24.0313 12.378 24.9688 11.3989ZM17.4271 17.403C16.4164 18.9758 15.4847 20.5979 14.6354 22.2634C14.1005 20.9352 13.6312 19.5815 13.2291 18.2072C14.5625 17.8905 15.9708 17.6155 17.4271 17.403V17.403ZM8.20419 30.1613C4.59584 28.6239 2.2625 26.6051 2.2625 25.0051C2.2625 23.4051 4.59584 21.3759 8.20419 19.8488C9.07915 19.4718 10.0375 19.1342 11.0271 18.8197C11.6084 20.8155 12.3729 22.8946 13.3187 25.0259C12.4257 27.0305 11.6706 29.0936 11.0583 31.2009C10.0905 30.9013 9.138 30.5543 8.20419 30.1613ZM13.6875 44.7238C12.3021 43.9322 11.7 40.903 12.1687 37.0114C12.2812 36.053 12.4646 35.0426 12.6896 34.0134C14.6854 34.503 16.8666 34.8801 19.1605 35.1259C20.4587 36.917 21.8751 38.6193 23.4 40.2218C20.0771 43.3093 16.9584 45.0009 14.8375 45.0009C14.4374 45.0053 14.0424 44.9108 13.6875 44.7259V44.7238ZM37.8625 36.9593C38.3417 40.853 37.75 43.8801 36.3729 44.6843C36.0687 44.8676 35.6709 44.9488 35.2021 44.9488C33.0916 44.9488 29.9625 43.2676 26.6396 40.1988C28.1582 38.6031 29.565 36.9046 30.85 35.1155C33.0337 34.8918 35.1993 34.5173 37.3313 33.9946C37.5667 35.0238 37.7479 36.0114 37.8625 36.9593V36.9593ZM41.7854 30.1613C40.9105 30.5385 39.9521 30.8759 38.9625 31.1905C38.3395 29.0724 37.5739 26.9989 36.6708 24.9842C37.6083 22.8655 38.3604 20.7967 38.9312 18.8093C39.9021 19.1099 40.8581 19.4568 41.7959 19.8488C45.4042 21.3864 47.7375 23.4051 47.7375 25.0051C47.7271 26.6051 45.3937 28.6343 41.7854 30.1613V30.1613Z" fill="#1096E1"/>
<path d="M24.9903 29.6644C26.2258 29.6644 27.4107 29.1736 28.2843 28.3C29.1579 27.4264 29.6487 26.2415 29.6487 25.006C29.6487 23.7705 29.1579 22.5857 28.2843 21.7121C27.4107 20.8385 26.2258 20.3477 24.9903 20.3477C23.7549 20.3477 22.57 20.8385 21.6964 21.7121C20.8228 22.5857 20.332 23.7705 20.332 25.006C20.332 26.2415 20.8228 27.4264 21.6964 28.3C22.57 29.1736 23.7549 29.6644 24.9903 29.6644Z" fill="#1096E1"/>
</g>
<defs>
<clipPath id="clip0_150_142">
<rect width="50" height="50" fill="white"/>
</clipPath>
</defs>
</svg>

<svg xmlns="http://www.w3.org/2000/svg" width="50" height="50" fill="none" xmlns:v="https://vecta.io/nano"><g clip-path="url(#A)" fill="#1096e1"><path d="M50 25.005c0-3.312-4.148-6.452-10.508-8.398 1.469-6.481.817-11.64-2.058-13.292a4.47 4.47 0 0 0-2.283-.569v2.271c.469 0 .846.094 1.163.267 1.385.796 1.987 3.821 1.519 7.715-.112.958-.296 1.967-.521 2.996a49.41 49.41 0 0 0-6.471-1.11 49.71 49.71 0 0 0-4.24-5.096c3.323-3.088 6.442-4.779 8.563-4.779V2.736c-2.804 0-6.473 1.998-10.183 5.462-3.708-3.442-7.379-5.421-10.181-5.421v2.271c2.11 0 5.24 1.683 8.562 4.75-1.427 1.5-2.854 3.2-4.21 5.085a47.57 47.57 0 0 0-6.481 1.121 30.61 30.61 0 0 1-.531-2.954c-.479-3.896.113-6.921 1.49-7.725.304-.183.702-.267 1.171-.267v-2.27c-.854 0-1.631.183-2.302.569-2.865 1.652-3.506 6.798-2.029 13.26C4.127 18.576 0 21.703 0 25.005c0 3.313 4.148 6.452 10.508 8.396-1.469 6.483-.817 11.642 2.058 13.292.662.388 1.437.571 2.292.571 2.804 0 6.473-1.998 10.183-5.462 3.708 3.444 7.377 5.421 10.181 5.421a4.54 4.54 0 0 0 2.302-.571c2.865-1.65 3.506-6.796 2.029-13.258C45.873 31.447 50 28.307 50 25.005h0zm-13.271-6.798a45.82 45.82 0 0 1-1.375 4.025 55.09 55.09 0 0 0-2.802-4.831c1.448.215 2.844.479 4.179.806h-.002zm-4.667 10.854a54.08 54.08 0 0 1-2.456 3.894 52.94 52.94 0 0 1-9.192.01 53.03 53.03 0 0 1-4.585-7.929 54.3 54.3 0 0 1 4.567-7.958 53.03 53.03 0 0 1 9.189-.012c.846 1.212 1.673 2.508 2.467 3.875a52.24 52.24 0 0 1 2.121 4.054 57.54 57.54 0 0 1-2.11 4.067zm3.292-1.325c.55 1.364 1.021 2.731 1.406 4.056a45.05 45.05 0 0 1-4.198.815c1.011-1.576 1.943-3.202 2.792-4.871zM25.021 38.611a41.7 41.7 0 0 1-2.833-3.263c.917.042 1.854.073 2.802.073.958 0 1.906-.021 2.833-.073a39.89 39.89 0 0 1-2.802 3.263zm-7.583-6.004c-1.405-.204-2.799-.472-4.179-.804.377-1.315.846-2.671 1.375-4.025a50.82 50.82 0 0 0 1.338 2.446c.479.814.967 1.61 1.467 2.383h0zm7.531-21.208a41.7 41.7 0 0 1 2.833 3.263c-.917-.042-1.854-.073-2.802-.073-.958 0-1.906.021-2.833.073a39.89 39.89 0 0 1 2.802-3.263zm-7.542 6.004a56.3 56.3 0 0 0-2.792 4.86 43.73 43.73 0 0 1-1.406-4.056 48.55 48.55 0 0 1 4.198-.804h0zM8.204 30.161c-3.608-1.537-5.942-3.556-5.942-5.156s2.333-3.629 5.942-5.156c.875-.377 1.833-.715 2.823-1.029a49.47 49.47 0 0 0 2.292 6.206 48.28 48.28 0 0 0-2.26 6.175 30.96 30.96 0 0 1-2.854-1.04zm5.483 14.562c-1.385-.792-1.988-3.821-1.519-7.712.113-.958.296-1.969.521-2.998 1.996.49 4.177.867 6.471 1.113 1.298 1.791 2.715 3.493 4.24 5.096-3.323 3.087-6.442 4.779-8.562 4.779a2.43 2.43 0 0 1-1.15-.275v-.002zm24.175-7.764c.479 3.894-.112 6.921-1.49 7.725-.304.183-.702.264-1.171.264-2.111 0-5.24-1.681-8.562-4.75a47.93 47.93 0 0 0 4.21-5.083 47.57 47.57 0 0 0 6.481-1.121 28.92 28.92 0 0 1 .531 2.965h0zm3.923-6.798a30.68 30.68 0 0 1-2.823 1.029 48.92 48.92 0 0 0-2.292-6.206c.938-2.119 1.69-4.187 2.26-6.175a32.01 32.01 0 0 1 2.865 1.04c3.608 1.538 5.942 3.556 5.942 5.156-.01 1.6-2.344 3.629-5.952 5.156h0zm-16.795-.497a4.66 4.66 0 0 0 4.658-4.658 4.66 4.66 0 0 0-4.658-4.658 4.66 4.66 0 0 0-4.658 4.658 4.66 4.66 0 0 0 4.658 4.658z"/></g><defs><clipPath id="A"><path fill="#fff" d="M0 0h50v50H0z"/></clipPath></defs></svg>
